Printex-remake/img/icons/catalog_sliced/09.svg

<svg width="91" height="69" viewBox="0 0 91 69" fill="none" xmlns="http://www.w3.org/2000/svg">
<g clip-path="url(#clip0)">
<path fill-rule="evenodd" clip-rule="evenodd" d="M63.4429 55.0339C63.6823 54.713 63.9165 54.3865 64.1455 54.0547C72.7384 41.6021 71.1226 25.5583 61.1837 15.1965C62.4195 15.0582 63.6424 14.9816 64.8458 14.9709C72.6409 14.9012 78.1285 17.6053 80.6863 22.0273C81.2819 23.057 81.1522 24.3207 80.5666 25.3561L63.9837 54.6765C63.8042 54.7966 63.6239 54.9157 63.4429 55.0339Z" fill="#E5CABE"/>
<path fill-rule="evenodd" clip-rule="evenodd" d="M40.1189 68.0968C49.2973 66.7196 57.9949 63.3014 63.5004 57.9998C72.6736 49.1664 70.2144 36.5442 63.4419 28.9027C68.475 28.8345 73.3509 29.4789 77.6563 30.9198C92.3103 35.8241 94.8064 48.0993 83.2314 58.3372C75.7953 64.9143 56.7054 68.0183 40.1189 68.0968Z" fill="#E5CABE"/>
<path d="M1.87834 31.4255C-1.07082 37.9848 1.90479 45.2482 10.8052 50.3865C24.1757 58.1054 45.8535 58.1054 59.2239 50.3865C66.5713 46.1448 69.8811 40.4549 69.1534 34.9084" stroke="black"/>
<path d="M68.5986 36.084C70.7402 42.3354 67.6153 49.0689 59.2239 53.9133C45.8535 61.6322 24.1757 61.6322 10.8052 53.9133C3.97607 49.9708 0.635001 44.7771 0.781989 39.6104" stroke="black"/>
<path d="M1.87834 37.8477C-1.07082 44.665 1.90479 52.2142 10.8052 57.5547C24.1757 65.5773 45.8535 65.5773 59.2239 57.5547C66.5713 53.1461 69.8811 47.2323 69.1534 41.4676" stroke="black"/>
<path d="M68.5986 42.6895C70.7402 49.1868 67.6153 56.1852 59.2239 61.2203C45.8535 69.2429 24.1757 69.2429 10.8052 61.2203C3.97607 57.1227 0.635001 51.7247 0.781989 46.3546" stroke="black"/>
<path d="M1.43052 29.0308C-0.711122 35.2821 2.41377 42.0156 10.8052 46.8601C24.1757 54.579 45.8535 54.579 59.2239 46.8601C67.6153 42.0156 70.7402 35.2821 68.5986 29.0308" stroke="black"/>
<path d="M59.0409 42.9391C52.4433 46.7479 43.7647 48.6666 35.059 48.6666C26.3533 48.6666 17.6747 46.7479 11.0772 42.9391C4.47683 39.1286 1.29004 34.2044 1.29004 29.3829C1.29004 24.5614 4.47683 19.6371 11.0772 15.8267C17.6747 12.0179 26.3533 10.0991 35.059 10.0991C43.7647 10.0991 52.4433 12.0179 59.0409 15.8267C65.6412 19.6371 68.828 24.5614 68.828 29.3829C68.828 34.2044 65.6412 39.1286 59.0409 42.9391Z" fill="#FFE1D3" stroke="black"/>
<path d="M65.998 11.0036C66.3064 11.9225 66.0092 12.9546 65.3139 13.7548L46.3381 35.5952C44.3346 37.9012 41.8523 39.7419 38.9815 40.6594C31.0957 43.1794 22.7607 44.0232 15.6462 42.6427C8.14338 41.1868 3.5126 37.5593 1.93698 32.9877C0.361356 28.416 1.7739 22.7057 6.78653 16.9364C11.797 11.1695 19.3981 6.51459 27.6517 3.66998C35.9054 0.825372 44.7603 -0.191316 52.26 1.26398C59.8089 2.72882 64.4502 6.39173 65.998 11.0036Z" fill="#FFE1D3" stroke="black"/>
<path d="M43.5 24.4998C42.314 25.8609 41.5931 28.4998 41.0224 30.4998C36.5157 33.172 30.6656 34.4878 26.0077 33.5772C19.5779 32.3202 17.8545 27.2969 22.1583 22.3573C26.4621 17.4177 35.1633 14.4324 41.5931 15.6894C45.1087 16.3767 47.2173 18.1899 47.703 20.4998C46.5 20.9998 45.4506 22.261 43.5 24.4998Z" fill="white"/>
<path d="M66.553 11.2095C57.1319 13.651 49.3216 17.5977 44.8952 22.692C40.4687 27.7863 40.1562 33.1881 43.2279 38.0542" stroke="black"/>
<path d="M18.3343 38.5066C5.79202 36.2591 2.91298 27.1176 11.9038 18.0884C20.8946 9.0593 38.3506 3.56168 50.8928 5.80916" stroke="black"/>
</g>
<defs>
<clipPath id="clip0">
<rect width="98" height="98" fill="white" transform="translate(-5 -18)"/>
</clipPath>
</defs>
</svg>

<svg width="91" height="69" fill="none" xmlns="http://www.w3.org/2000/svg"><g clip-path="url(#clip0)"><path fill-rule="evenodd" clip-rule="evenodd" d="M63.443 55.034c.24-.321.474-.648.703-.98 8.592-12.452 6.977-28.496-2.962-38.858a35.815 35.815 0 013.662-.225c7.795-.07 13.282 2.634 15.84 7.056.596 1.03.466 2.294-.12 3.33l-16.582 29.32c-.18.12-.36.239-.541.357z" fill="#E5CABE"/><path fill-rule="evenodd" clip-rule="evenodd" d="M40.119 68.097C49.297 66.72 57.995 63.3 63.5 58c9.174-8.834 6.714-21.456-.058-29.097 5.033-.069 9.909.576 14.214 2.017 14.654 4.904 17.15 17.18 5.575 27.417-7.436 6.577-26.526 9.681-43.112 9.76z" fill="#E5CABE"/><path d="M1.878 31.425c-2.949 6.56.027 13.823 8.927 18.961 13.37 7.72 35.048 7.72 48.419 0 7.347-4.241 10.657-9.931 9.93-15.478" stroke="#000"/><path d="M68.599 36.084c2.141 6.251-.984 12.985-9.375 17.83-13.37 7.718-35.048 7.718-48.419 0C3.976 49.97.635 44.776.782 39.61" stroke="#000"/><path d="M1.878 37.848c-2.949 6.817.027 14.366 8.927 19.707 13.37 8.022 35.048 8.022 48.419 0 7.347-4.409 10.657-10.323 9.93-16.087" stroke="#000"/><path d="M68.599 42.69c2.141 6.497-.984 13.495-9.375 18.53-13.37 8.023-35.048 8.023-48.419 0C3.976 57.123.635 51.725.782 46.355" stroke="#000"/><path d="M1.43 29.03c-2.141 6.252.984 12.986 9.375 17.83 13.37 7.719 35.048 7.719 48.419 0 8.391-4.844 11.516-11.578 9.375-17.83" stroke="#000"/><path d="M59.04 42.94c-6.597 3.808-15.275 5.727-23.981 5.727-8.706 0-17.384-1.92-23.982-5.728-6.6-3.81-9.787-8.735-9.787-13.556 0-4.822 3.187-9.746 9.787-13.556 6.598-3.81 15.276-5.728 23.982-5.728s17.384 1.919 23.982 5.728c6.6 3.81 9.787 8.734 9.787 13.556 0 4.821-3.187 9.746-9.787 13.556z" fill="#FFE1D3" stroke="#000"/><path d="M65.998 11.004c.308.918.011 1.95-.684 2.75L46.338 35.596c-2.003 2.306-4.486 4.147-7.357 5.064-7.885 2.52-16.22 3.364-23.335 1.984-7.503-1.456-12.133-5.084-13.709-9.655-1.576-4.572-.163-10.282 4.85-16.052C11.797 11.17 19.398 6.515 27.652 3.67 35.905.825 44.76-.191 52.26 1.264c7.549 1.465 12.19 5.128 13.738 9.74z" fill="#FFE1D3" stroke="#000"/><path d="M43.5 24.5c-1.186 1.36-1.907 4-2.478 6-4.506 2.672-10.356 3.988-15.014 3.077-6.43-1.257-8.153-6.28-3.85-11.22 4.304-4.94 13.005-7.925 19.435-6.668 3.516.688 5.624 2.5 6.11 4.81-1.203.5-2.252 1.762-4.203 4z" fill="#fff"/><path d="M66.553 11.21c-9.421 2.441-17.231 6.388-21.658 11.482-4.426 5.094-4.739 10.496-1.667 15.362m-24.894.453c-12.542-2.248-15.421-11.39-6.43-20.419C20.894 9.06 38.35 3.562 50.893 5.81" stroke="#000"/></g><defs><clipPath id="clip0"><path fill="#fff" transform="translate(-5 -18)" d="M0 0h98v98H0z"/></clipPath></defs></svg>
